Adwaita++/emblems/16/emblem-syncthing.svg

<svg fill="none" height="16" viewBox="0 0 16 16" width="16" xmlns="http://www.w3.org/2000/svg">
  <path d="m13.6 1h-11.2c-.7732 0-1.4.6268-1.4 1.4v11.2c0 .7732.6268 1.4 1.4 1.4h11.2c.7732 0 1.4-.6268 1.4-1.4v-11.2c0-.7732-.6268-1.4-1.4-1.4z" fill="#3584e4"/>
  <g fill="#f6f5f4">
    <path d="m7.99998 3.5c-1.20553 0-2.36168.47889-3.21412 1.33133s-1.33133 2.00859-1.33133 3.21412.47889 2.36165 1.33133 3.21415c.85244.8524 2.00859 1.3313 3.21412 1.3313s2.36172-.4789 3.21412-1.3313c.8524-.8525 1.3313-2.00862 1.3313-3.21415-.0022-.52963-.0969-1.0548-.28-1.55181l.01-.00709-.0245-.03373c-.324-.86613-.9045-1.61284-1.664-2.14044-.75946-.5276-1.6618-.811-2.58655-.81238zm0 .45455c.74958.00033 1.48465.2066 2.12492.59629.6404.38969 1.1613.94781 1.506 1.61343l-2.83628 2.02682-4.83927.43946c-.02939-.19368-.04482-.38921-.04618-.5851 0-1.08497.431-2.12551 1.19819-2.89271.7672-.76719 1.80774-1.19819 2.89271-1.19819zm3.88182 2.81336c.1371.41205.2076.8433.2091 1.27754-.0012 1.07718-.4272 2.11045-1.1855 2.87545l-1.56087-2.34099zm-3.13254 2.06591 1.66984 2.50438c-.70112.5169-1.54889.7965-2.41993.7982-.87251-.001-1.72185-.2809-2.42398-.7989-.70214-.5179-1.22028-1.2468-1.47875-2.08014l4.652-.42345z"/>
    <path d="m3.90909 9.86364c.50208 0 .90909-.40702.90909-.90909 0-.50208-.40701-.90909-.90909-.90909s-.90909.40701-.90909.90909c0 .50207.40701.90909.90909.90909z"/>
    <path d="m10.7273 12.1364c.502 0 .9091-.4071.9091-.9091 0-.5021-.4071-.9091-.9091-.9091-.5021 0-.90912.407-.90912.9091 0 .502.40702.9091.90912.9091z"/>
    <path d="m12.0909 7.13636c.5021 0 .9091-.40702.9091-.90909 0-.50208-.407-.90909-.9091-.90909s-.9091.40701-.9091.90909c0 .50207.407.90909.9091.90909z"/>
    <path d="m8.90909 9.40909c.50208 0 .90909-.40701.90909-.90909 0-.50207-.40701-.90909-.90909-.90909s-.90909.40702-.90909.90909c0 .50208.40701.90909.90909.90909z"/>
  </g>
</svg>

<svg xmlns="http://www.w3.org/2000/svg" fill="none" width="16" height="16" viewBox="0 0 16 16">
 <path fill="#3584E4" d="M13.6 1H2.4C1.6268 1 1 1.6268 1 2.4V13.6C1 14.3732 1.6268 15 2.4 15H13.6C14.3732 15 15 14.3732 15 13.6V2.4C15 1.6268 14.3732 1 13.6 1Z"/>
 <path fill="url(#paint0_linear)" d="M7.99998 3.5C6.79445 3.5 5.6383 3.97889 4.78586 4.83133C3.93342 5.68377 3.45453 6.83992 3.45453 8.04545C3.45453 9.25098 3.93342 10.4071 4.78586 11.2596C5.6383 12.112 6.79445 12.5909 7.99998 12.5909C9.20551 12.5909 10.3617 12.112 11.2141 11.2596C12.0665 10.4071 12.5454 9.25098 12.5454 8.04545C12.5432 7.51582 12.4485 6.99065 12.2654 6.49364L12.2754 6.48655L12.2509 6.45282C11.9269 5.58669 11.3464 4.83998 10.5869 4.31238C9.82744 3.78478 8.9251 3.50138 8.00035 3.5H7.99998ZM7.99998 3.95455C8.74956 3.95488 9.48463 4.16115 10.1249 4.55084C10.7653 4.94053 11.2862 5.49865 11.6309 6.16427L8.79462 8.19109L3.95535 8.63055C3.92596 8.43687 3.91053 8.24134 3.90917 8.04545C3.90917 6.96048 4.34017 5.91994 5.10736 5.15274C5.87456 4.38555 6.9151 3.95455 8.00007 3.95455H7.99998ZM11.8818 6.76791C12.0189 7.17996 12.0894 7.61121 12.0909 8.04545C12.0897 9.12263 11.6637 10.1559 10.9054 10.9209L9.34453 8.57991L11.8818 6.76791ZM8.74926 8.83382L10.4191 11.3382C9.71798 11.8551 8.87021 12.1347 7.99917 12.1364C7.12666 12.1354 6.27732 11.8555 5.57519 11.3375C4.87305 10.8196 4.35491 10.0907 4.09644 9.25736L8.74844 8.83391L8.74926 8.83382Z"/>
 <path fill="url(#paint1_linear)" d="M3.90909 9.86364C4.41117 9.86364 4.81818 9.45662 4.81818 8.95455C4.81818 8.45247 4.41117 8.04546 3.90909 8.04546C3.40701 8.04546 3 8.45247 3 8.95455C3 9.45662 3.40701 9.86364 3.90909 9.86364Z"/>
 <path fill="url(#paint2_linear)" d="M10.7273 12.1364C11.2293 12.1364 11.6364 11.7293 11.6364 11.2273C11.6364 10.7252 11.2293 10.3182 10.7273 10.3182C10.2252 10.3182 9.81818 10.7252 9.81818 11.2273C9.81818 11.7293 10.2252 12.1364 10.7273 12.1364Z"/>
 <path fill="url(#paint3_linear)" d="M12.0909 7.13636C12.593 7.13636 13 6.72934 13 6.22727C13 5.72519 12.593 5.31818 12.0909 5.31818C11.5888 5.31818 11.1818 5.72519 11.1818 6.22727C11.1818 6.72934 11.5888 7.13636 12.0909 7.13636Z"/>
 <path fill="url(#paint4_linear)" d="M8.90909 9.40909C9.41117 9.40909 9.81818 9.00208 9.81818 8.5C9.81818 7.99793 9.41117 7.59091 8.90909 7.59091C8.40701 7.59091 8 7.99793 8 8.5C8 9.00208 8.40701 9.40909 8.90909 9.40909Z"/>
 <defs>
  <linearGradient id="paint0_linear" x1="3.455" x2="12.545" y1="8.045" y2="8.045" gradientUnits="userSpaceOnUse">
   <stop stop-color="#F6F5F4"/>
  </linearGradient>
  <linearGradient id="paint1_linear" x1="3" x2="4.818" y1="8.955" y2="8.955" gradientUnits="userSpaceOnUse">
   <stop stop-color="#F6F5F4"/>
  </linearGradient>
  <linearGradient id="paint2_linear" x1="9.818" x2="11.636" y1="11.227" y2="11.227" gradientUnits="userSpaceOnUse">
   <stop stop-color="#F6F5F4"/>
  </linearGradient>
  <linearGradient id="paint3_linear" x1="11.182" x2="13" y1="6.227" y2="6.227" gradientUnits="userSpaceOnUse">
   <stop stop-color="#F6F5F4"/>
  </linearGradient>
  <linearGradient id="paint4_linear" x1="8" x2="9.818" y1="8.5" y2="8.5" gradientUnits="userSpaceOnUse">
   <stop stop-color="#F6F5F4"/>
  </linearGradient>
 </defs>
</svg>
